X: 30410
T: Old Story-Teller, The
R: hornpipe
M: 4/4
K: Gmajor
|:(3DEF|Gz GA BcdB|{d}cB{d}cd edef|{a}gf{a}ge dBGB|cBAG FADF|
GFGA BcdB|{d}cBcd ~e3 g|bgdB {d}cAFD|{A}G2GF {A}G2:|
|:z f|~g3a bgdB|{d}cBcd ecAf|{a}gfga bgdB|cdef g2ga|
(3bag fa (3gfe df|(3edc ge dBGB|dgfg ecAF|{A}G2GF {A}G2:|

